src/client/public/static/sword-cross.svg

<?xml version="1.0" encoding="UTF-8" standalone="no"?><!DOCTYPE svg PUBLIC "-//W3C//DTD SVG 1.1//EN" "http://www.w3.org/Graphics/SVG/1.1/DTD/svg11.dtd"><svg width="100%" height="100%" viewBox="0 0 24 24" version="1.1" xmlns="http://www.w3.org/2000/svg" xmlns:xlink="http://www.w3.org/1999/xlink" xml:space="preserve" xmlns:serif="http://www.serif.com/" style="fill-rule:evenodd;clip-rule:evenodd;stroke-linejoin:round;stroke-miterlimit:2;"><path d="M6.2,2.44l11.9,11.9l2.12,-2.12l1.41,1.41l-2.47,2.47l3.18,3.18c0.39,0.39 0.39,1.02 -0,1.41l-0.71,0.71c-0.39,0.39 -1.02,0.39 -1.41,0l-3.22,-3.17l-2.44,2.47l-1.41,-1.41l2.12,-2.12l-11.9,-11.9l-0,-2.83l2.83,0m9.69,7.56l4.74,-4.74l-0,-2.82l-2.83,0l-4.74,4.74l2.83,2.82m-4.95,5l-2.83,-2.87l-2.21,2.21l-2.12,-2.12l-1.41,1.41l2.47,2.47l-3.18,3.19c-0.39,0.39 -0.39,1.02 -0,1.41l0.71,0.71c0.39,0.39 1.02,0.39 1.41,0l3.22,-3.18l2.44,2.47l1.41,-1.41l-2.12,-2.12l2.21,-2.17Z" style="fill:#fcf7f8;fill-rule:nonzero;"/></svg>

<svg viewBox="0 0 24 24" xmlns="http://www.w3.org/2000/svg" xml:space="preserve" style="fill-rule:evenodd;clip-rule:evenodd;stroke-linejoin:round;stroke-miterlimit:2">
  <path d="m6.2 2.44 11.9 11.9 2.12-2.12 1.41 1.41-2.47 2.47 3.18 3.18c.39.39.39 1.02 0 1.41l-.71.71c-.39.39-1.02.39-1.41 0L17 18.23l-2.44 2.47-1.41-1.41 2.12-2.12-11.9-11.9V2.44H6.2M15.89 10l4.74-4.74V2.44H17.8l-4.74 4.74L15.89 10m-4.95 5-2.83-2.87-2.21 2.21-2.12-2.12-1.41 1.41 2.47 2.47-3.18 3.19c-.39.39-.39 1.02 0 1.41l.71.71c.39.39 1.02.39 1.41 0L7 18.23l2.44 2.47 1.41-1.41-2.12-2.12L10.94 15Z" style="fill:#fcf7f8;fill-rule:nonzero"/>
</svg>
